packages/icons/src/SVG/bank-check.svg

<!-- Generated by IcoMoon.io -->
<svg version="1.1" xmlns="http://www.w3.org/2000/svg" width="12" height="12" viewBox="0 0 12 12">
<title>bank-check</title>
<path d="M12 2v8h-12v-8h12zM11 4h-10v5h10v-5z"></path>
<path d="M2 7h7v1h-7v-1z"></path>
<path d="M2 5h4v1h-4v-1z"></path>
<path d="M8 5h2v1h-2v-1z"></path>
</svg>

<svg width="12" height="12" viewBox="0 0 12 12" >
<path fill-rule="evenodd" clip-rule="evenodd" d="M12 2H0V10H12V2ZM11 4H1V9H11V4Z" />
<path d="M2 7H9V8H2V7Z" />
<path d="M2 5H6V6H2V5Z" />
<path d="M8 5H10V6H8V5Z" />
</svg>
